X:19
T:Bonnie Kate (original version) (reel) 
B:CRE1.174 (Cait Bhoidheach - an bun-leagan)
F:file ID: cre.1/019bonny_k_Or
M:C
Q:180
R:reel
K:D
AFdA BdAF|DFAF EE/E/ E2|AFAd BGBd|cdAc dd/d/ d2|
AFdA BdAF|DFAF EE/E/ E2|AFAd BGBd|ceAc dd/d/ d2||
fdad fadb|adfd efgb|fddf gbeg|faef dd/d/ d2|
fdad fadb|adfd efge|dAFA ceAg|faef dd/d/ d2|]

%%%

